storage/app/icons/phosphoricons/thin/lockers-thin.svg

<svg xmlns="http://www.w3.org/2000/svg" fill="currentColor" viewBox="0 0 256 256"><path d="M188 72a4 4 0 0 1-4 4h-24a4 4 0 0 1 0-8h24a4 4 0 0 1 4 4m-4 28h-24a4 4 0 0 0 0 8h24a4 4 0 0 0 0-8M72 76h24a4 4 0 0 0 0-8H72a4 4 0 0 0 0 8m24 24H72a4 4 0 0 0 0 8h24a4 4 0 0 0 0-8m124-52v176a4 4 0 0 1-8 0v-20h-80v20a4 4 0 0 1-8 0v-20H44v20a4 4 0 0 1-8 0V48a12 12 0 0 1 12-12h160a12 12 0 0 1 12 12m-96 148V44H48a4 4 0 0 0-4 4v148Zm8 0h80V48a4 4 0 0 0-4-4h-76Z"/></svg>

<svg xmlns="http://www.w3.org/2000/svg" viewBox="0 0 256 256" fill="currentColor"><path d="M188,72a4,4,0,0,1-4,4H160a4,4,0,0,1,0-8h24A4,4,0,0,1,188,72Zm-4,28H160a4,4,0,0,0,0,8h24a4,4,0,0,0,0-8ZM72,76H96a4,4,0,0,0,0-8H72a4,4,0,0,0,0,8Zm24,24H72a4,4,0,0,0,0,8H96a4,4,0,0,0,0-8ZM220,48V224a4,4,0,0,1-8,0V204H132v20a4,4,0,0,1-8,0V204H44v20a4,4,0,0,1-8,0V48A12,12,0,0,1,48,36H208A12,12,0,0,1,220,48ZM124,196V44H48a4,4,0,0,0-4,4V196Zm8,0h80V48a4,4,0,0,0-4-4H132Z"/></svg>
